X: 113
M:2/4
L:1/16
K:A
vcd|feee eagf|feee .e2vce|edfd dc"4"ec|dBAG ABcd|
feee eagf|feee .e2vce|edfd dcAc|"4"edBG A2:|
|:uE2|Acc"4"e Acce|edfd dc.c2|vAcc"4"e Acce|edcB AEFG|


